public/static/images/projects/motion-lab/logo.svg

<svg width="145" height="145" viewBox="0 0 145 145" fill="none" xmlns="http://www.w3.org/2000/svg">
<rect width="145" height="145" rx="10" fill="#262626"/>
<path d="M131 20C134.314 20 137 17.3137 137 14C137 10.6863 134.314 8 131 8C127.686 8 125 10.6863 125 14C125 17.3137 127.686 20 131 20Z" fill="#E4E4E4"/>
<path d="M131 137C134.314 137 137 134.314 137 131C137 127.686 134.314 125 131 125C127.686 125 125 127.686 125 131C125 134.314 127.686 137 131 137Z" fill="#E4E4E4"/>
<path d="M14 20C17.3137 20 20 17.3137 20 14C20 10.6863 17.3137 8 14 8C10.6863 8 8 10.6863 8 14C8 17.3137 10.6863 20 14 20Z" fill="#E4E4E4"/>
<path d="M14 137C17.3137 137 20 134.314 20 131C20 127.686 17.3137 125 14 125C10.6863 125 8 127.686 8 131C8 134.314 10.6863 137 14 137Z" fill="#E4E4E4"/>
<path d="M64.0075 104.539C64.3335 105.104 64.9843 105.278 65.6327 105.048C78.1571 104.539 80.0167 102.9 89.2647 111.363C89.6799 111.933 90.3739 112.083 90.9383 111.757C91.5031 111.431 91.6979 110.768 91.4343 110.111C89.2647 97.7886 89.2647 96.5774 97.7819 86.4822C98.3055 86.0354 98.4583 85.3978 98.1323 84.833C97.8067 84.2694 97.1783 84.083 96.5423 84.3342C81.9963 86.4822 81.9963 86.4822 72.9103 78.0186C72.4599 77.4394 71.7879 77.2778 71.2243 77.6034C70.6595 77.9294 70.4419 78.6046 70.7407 79.2714C72.9103 92.2182 70.7407 96.6722 64.3927 102.9C63.8571 103.325 63.6823 103.975 64.0075 104.539Z" fill="url(#paint0_linear_963_2834)"/>
<path fill-rule="evenodd" clip-rule="evenodd" d="M108.291 36.6513C114.549 43.9225 114.872 55.0561 111.395 63.4229C110.33 65.9869 107.388 67.2013 104.824 66.1357C102.26 65.0697 101.046 62.1269 102.112 59.5629C104.555 53.6841 103.804 46.8509 100.672 43.2117C99.2288 41.5349 97.1112 40.2911 93.9156 40.0855C90.592 39.8717 85.8768 40.7809 79.5508 44.0149C68.918 49.4509 59.958 58.0237 53.4288 67.2917C46.862 76.6137 43.0252 86.2477 42.2148 93.5477C41.8084 97.2081 42.2068 99.8701 42.9852 101.569C43.6692 103.063 44.6788 103.947 46.3268 104.348C48.2224 104.809 51.3788 104.706 56.2076 102.962C60.9836 101.237 67.006 98.0449 74.3888 92.8981C76.6664 91.3105 79.7996 91.8701 81.3872 94.1481C82.9744 96.4265 82.4152 99.5601 80.1376 101.148C72.3144 106.602 65.496 110.298 59.6224 112.42C53.8016 114.522 48.4992 115.225 43.9528 114.119C39.1592 112.954 35.7436 109.902 33.8452 105.758C32.0416 101.82 31.7 97.1445 32.2228 92.4377C33.27 83.0037 37.9652 71.7845 45.2108 61.4997C52.494 51.1609 62.6276 41.3737 74.9756 35.0609C82.3204 31.3058 88.8668 29.6841 94.5608 30.0505C100.383 30.4251 105.039 32.8728 108.291 36.6513Z" fill="url(#paint1_linear_963_2834)"/>
<defs>
<linearGradient id="paint0_linear_963_2834" x1="103.7" y1="32.5861" x2="42.9007" y2="114.637" gradientUnits="userSpaceOnUse">
<stop stop-color="#84EC43"/>
<stop offset="1" stop-color="#6EC23A"/>
</linearGradient>
<linearGradient id="paint1_linear_963_2834" x1="103.702" y1="32.5872" x2="42.9032" y2="114.639" gradientUnits="userSpaceOnUse">
<stop stop-color="#84EC43"/>
<stop offset="1" stop-color="#6EC23A"/>
</linearGradient>
</defs>
</svg>

<svg xmlns="http://www.w3.org/2000/svg" width="145" height="145" fill="none"><rect width="145" height="145" fill="#262626" rx="10"/><path fill="#E4E4E4" d="M131 20a6 6 0 1 0 0-12 6 6 0 0 0 0 12M131 137a6 6 0 1 0 0-12 6 6 0 0 0 0 12M14 20a6 6 0 1 0 0-12 6 6 0 0 0 0 12M14 137a6 6 0 1 0 0-12 6 6 0 0 0 0 12"/><path fill="url(#a)" d="M64.007 104.539c.326.565.977.739 1.626.509 12.524-.509 14.384-2.148 23.632 6.315.415.57 1.109.72 1.673.394s.76-.989.496-1.646c-2.17-12.322-2.17-13.534 6.348-23.629.523-.447.676-1.084.35-1.649-.325-.564-.954-.75-1.59-.499-14.546 2.148-14.546 2.148-23.632-6.315-.45-.58-1.122-.741-1.686-.416-.565.326-.782 1.002-.483 1.668 2.17 12.947 0 17.401-6.348 23.629-.536.425-.71 1.075-.386 1.639"/><path fill="url(#b)" fill-rule="evenodd" d="M108.291 36.651c6.258 7.271 6.581 18.405 3.104 26.772a5.026 5.026 0 1 1-9.283-3.86c2.443-5.879 1.692-12.712-1.44-16.351-1.443-1.677-3.56-2.92-6.756-3.126-3.324-.214-8.04.695-14.365 3.929-10.633 5.436-19.593 14.009-26.122 23.277-6.567 9.322-10.404 18.956-11.214 26.256-.407 3.66-.008 6.322.77 8.021.684 1.494 1.694 2.378 3.342 2.779 1.895.461 5.052.358 9.88-1.386 4.777-1.725 10.799-4.917 18.182-10.064a5.029 5.029 0 0 1 5.749 8.25c-7.824 5.454-14.642 9.15-20.516 11.272-5.82 2.102-11.123 2.805-15.67 1.699-4.793-1.165-8.208-4.217-10.107-8.361-1.803-3.938-2.145-8.614-1.622-13.32C33.27 83.004 37.965 71.784 45.21 61.5c7.283-10.34 17.417-20.126 29.765-26.44 7.344-3.754 13.89-5.376 19.585-5.01 5.822.375 10.478 2.823 13.73 6.601" clip-rule="evenodd"/><defs><linearGradient id="a" x1="103.7" x2="42.901" y1="32.586" y2="114.637" gradientUnits="userSpaceOnUse"><stop stop-color="#84EC43"/><stop offset="1" stop-color="#6EC23A"/></linearGradient><linearGradient id="b" x1="103.702" x2="42.903" y1="32.587" y2="114.639" gradientUnits="userSpaceOnUse"><stop stop-color="#84EC43"/><stop offset="1" stop-color="#6EC23A"/></linearGradient></defs></svg>
